X: 1599
T: the Ulster Hornpipe   #2
R: hornpipe
B: O'Neill's 1850 #1599
O: J.O'Neill
Z: Michael D. Long, 10/01/98
Z: Michael Hogan
Z: Compacted via repeats and multiple endings [JC]
M: C|
L: 1/8
K: G
|: (dc) | BGFG DGBd | cBAG FAGF | Ggfe [1,3 dBAG | B2A2 A2 :|[2,4 dcAc | B2G2 G2 :: (dc) | BGBd gabg |
| abc'a gfed | e{f}g f{g}a g{a}b a{b}c' | bgfg e^def || gbdg egBd | cBAG FAGF | Ggfe dcAc | B2G2 G2 :|
%%text O'Neill has the grace notes (as triplets) in the repeat of the 2nd strain.
